X: 13
T:Sheilas of Oz - 2nds
M:2/4
L:1/16
Q:112
C:2nds by James G-H
R:March
K:D
|: FA |d2fd A2F2 |G2FG ABc2 |e3c A2cB |AcE2 E2FA  |d2fd A2F2 |G2FG AGF2
|GBed c2AG |F4 F2 :| !
   de |f3d  A2f2  |dFAd f2cd    |e3c A2cB |AEAc e2de   |f3d  A2f2   |dFA
d f2F2   |GBed c2AG   |F4 F2 || !
   de |f3d  A2f2  |dFAd f2cd   |e3c A2cB |AEAc e2de    |f2Af d2f2   |dfA
G F2F2    |GBed c2AG |F4 F2 |]
